X:151
T:Mad Dick. (p)1657.PLFD.152
M:6/4
L:1/4
Q:1/2=120
S:Playford, Dancing Master,Supplement to 3rd Ed.,1657
O:England
N:I had that once.
H:1657.
Z:Chris Partington.
K:F
c|f>gag>fe|f2cA>Bc|B>cAG>AF|GAFG2F|
f>gag>fe|f2c/B/A>Bc|c'f2g2f|f3-f2:|
|:a|b>c'ba>gf|eg2e>dc|df2c>BA|G>ABA>GF|
b3a>gf|c'2fe>dc|fAfg2f|f3-f2:|
